X:1
T:Jesus Promised Me a Home
T:Jesus Promised Me a Home
T:John Robson Sweney
T:H. Lutton, 1898
T:Public Domain Courtesy of the Cyber Hymnal™
T:Public Domain Courtesy of the Cyber Hymnal™
C:John Robson Sweney
Z:Public Domain
Z:Courtesy of the Cyber Hymnal™
%%score ( 1 2 ) ( 3 4 )
L:1/8
Q:1/4=100
M:4/4
K:F
V:1 treble 
V:2 treble 
V:3 bass 
V:4 bass 
V:1
 F[FG] | [FA]2 ([FA][FA]) [EB]2 ([EB][EB]) | [Fc]2 [Fc]2 F2 F[FG] | %3
w: 1.~There’s a|place in * Heav’n pre- *|pared for me, When the|
w: 2.~In my|Fa- ther’s * home are *|man- sions bright, Je- sus|
w: 3.~Ma- ny|dear ones~we * loved are~be- *|fore the throne, In that|
w: 4.~In that|home a- * bove, be- *|yond the skies, Soon from|
 ([FA][FA]) [FA]>[FA] [FG]2 [DF]2 | [EG]6 F[FG] | [FA]2 ([FA][FA]) [EB]2 ([EB][EB]) | %6
w: toils * of this life are|o’er; Where the|saints, robed~in * white, shall~for- *|
w: says~it * and I know ’tis|true; There’s a|home for * me, in~that *|
w: happy, * hap- py home on|high; I shall|walk with * them thro’~the *|
w: sickness, * pain and death I’ll|be, There with|Je- sus~to * reign for- *|
 [Fc]2 [Fc]2 F2 (F[FG]) | ([FA][FA]) [FA]>[FA] [EG]2 ([EG][EG]) | F6 ||"^Refrain" F[FG] | %10
w: ev- er be, Singing *|prais- * es for- ev- er *|more.||
w: land of light, Brother, *|sister, * there is one for *|you.||
w: streets of gold, I~shall *|wear~a * star- ry crown by~and *|by.||
w: ev- er- more, Through- *|out * all e- ter- ni- *|ty.||
 [FA]<[FA] [FA]>[FA] [FA]2 [EA]>[EG] | F6 [FA][GB] | [Ac]<[Ac] [Ac]>[Ac] [Ac]2 [Fc]>[FA] | %13
w: |||
w: |||
w: |||
w: |||
 !fermata![EG]4 [Ec]3 [GB] | [FA] [FA]3 [EB] [EB]3 | [Fc]2 [Fc]2 !fermata![Fd]2 F[FG] | %16
w: |||
w: |||
w: |||
w: |||
 [FA]<[FA] [FA]>[FA] [EG]2 [FA]>[EG] | [CF]6 |] %18
w: ||
w: ||
w: ||
w: ||
V:2
 F x | x8 | x4 F2 F x | x8 | x6 F x | x8 | x4 F2 F x | x8 | F6 || F x | x8 | F6 x2 | x8 | x8 | x8 | %15
 x6 F x | x8 | x6 |] %18
V:3
 [F,A,][F,B,] | [F,C]2 ([F,C][F,C]) [G,C]2 ([G,C][G,C]) | [A,C]2 [A,C]2 [F,A,]2 [F,A,][F,B,] | %3
w: ~ ~|~ ~ * ~ ~ *|~ ~ ~ ~ ~|
 ([F,C][F,C]) [F,C]>[F,C] [D,=B,]2 [D,B,]2 | (C4 CB,)[F,A,][F,B,] | %5
w: ~ * ~ ~ ~ ~|~ * * ~ ~|
 [F,C]2 ([F,C][F,C]) [G,C]2 ([G,C][G,C]) | [A,C]2 [A,C]2 [F,A,]2 ([A,,C][B,,D]) | %7
w: ~ ~ * ~ ~ *|~ ~ ~ ~ *|
 ([C,C][C,C]) [C,C]>[C,C] [C,C]2 ([C,B,][C,B,]) | [F,A,]6 || [F,A,][F,B,] | %10
w: ~ * ~ ~ ~ ~ *|~|Je- sus|
 [F,C]<[F,C] [F,C]>[F,C] [F,C]2 [C,C]>[C,B,] | [F,A,]6 [F,C][F,C] | %12
w: prom- ised me a home o- ver|there, Je- sus|
 [F,F]<[F,F] [F,F]>[F,F] [F,F]2 [A,C]>[F,C] | !fermata![C,C]4 [C,G,]3 [C,C] | %14
w: prom- ised me a home o- ver|there; No more|
 [F,C] [F,C]3 [G,C] [G,C]3 | [A,C]2 [A,C]2 !fermata!B,2 [A,,C][B,,D] | %16
w: sick- ness, sor- row,|pain or death, Je- sus|
 [C,C]<[C,C] [C,C]>[C,C] [C,B,]2 [C,C]>[C,B,] | [F,A,]6 |] %18
w: prom- ised me a home o- ver|there.|
V:4
 x2 | x8 | x8 | x8 | C,6 x2 | x8 | x8 | x8 | x6 || x2 | x8 | x8 | x8 | x8 | x8 | x4 B,2 x2 | x8 | %17
 x6 |] %18

